X: 91
T: Little Brother in a Cot
C: Witthauer
Q: "Moderato dolce."
%R: air, march
B: "The Everyday Song Book", 1927
F: http://www.library.pitt.edu/happybirthday/pdf/The_Everyday_Song_Book.pdf
Z: 2017 John Chambers <jc:trillian.mit.edu>
M: 4/4
L: 1/4
K: Ab
% - - - - - - - - - - - - - - - - - - - - - - - - - - - - -
[| A A c- c | B B A2 | c2 e- e | d2 c2 |
w: 1.~Lit-tle bro-ther in a cot,      Ba-by,_ ba-by!
w: 2.~Lit-tle bro-ther in a nap,      Ba-by,_ ba-by!
w: 3.~With a rat-tle in his hand,     Ba-by,_ ba-by!
w: 4.~When he wakes,_ kiss him twice, Then talk and gay be;
%
B B d- d | c c B2 | e- e c- c | B2 A2 |]
w: Shall he have a pleas-and lot?   May-* be,_ may-be.
w: Bless his ti-ny, lit-tle cap,    Noise* far a-way be.
w: Dream-ing, who can un-der-stand  Dreams like this, what they be?
w: Lit-tle cheeks,_ soft and white, Ba-*by_ ba-by!
% - - - - - - - - - - - - - - - - - - - - - - - - - - - - -

%%sep 1 1 500
%%sep 1 1 500

